X:5
T:Double Point Virgule
L:1/8
M:3/4
K:Bb
|: D,_G, =G,A, B,D | E_G =GA Bd | e6 | zd eb ba | a6 | zd eb ba | a=e eg g_g | _g6 | \
 D,_G, =G,A, B,D | E_G =GA Bd | e6 | zd eb ba | a6 | zd eb ba | a=e eg g_g | _g6 | \
 gb2g b2 | ag _g=g a_g | gd d'c' c'b | ba ag g_g | gb2g b2 | ag _g=g a/g/_g | gf df ed | \
 cd cB A_G | GB2G B2 | AG _G=G A_G | GD dD cD | BA _GD AG | G/G/G GB GB | AG _G=G A/G/_G | \
 G6 :|

